X:1102
T:Gillibh na fela,
T:The Lads wi' the Kilts.
M:6/8
L:1/8
Q:3/8=104
Z:Jack Campin * www.campin.me.uk * 2009
K:D
dBB TB2A|d>ef/e/ dBA|dBB  B2a |bfa  Tf2e:|
d>ef afa|b>af    afe|d>ef afa |bfa  Tf2e |
d>ef afa|baf     fdb|a>fe d>ef|a>ba Tf2e|]
<end>
<start>
